outputs/icons/navigation/apps_round.svg

<svg xmlns="http://www.w3.org/2000/svg" width="1200" height="1200" fill="none"><g clip-path="url(#a)"><path fill="#000" d="M200 350c0 27.614 22.386 50 50 50h100c27.614 0 50-22.386 50-50V250c0-27.614-22.386-50-50-50H250c-27.614 0-50 22.386-50 50zm300 600c0 27.615 22.385 50 50 50h100c27.615 0 50-22.385 50-50V850c0-27.615-22.385-50-50-50H550c-27.615 0-50 22.385-50 50zm-300 0c0 27.615 22.386 50 50 50h100c27.614 0 50-22.385 50-50V850c0-27.615-22.386-50-50-50H250c-27.614 0-50 22.385-50 50zm0-300c0 27.615 22.386 50 50 50h100c27.614 0 50-22.385 50-50V550c0-27.615-22.386-50-50-50H250c-27.614 0-50 22.385-50 50zm300 0c0 27.615 22.385 50 50 50h100c27.615 0 50-22.385 50-50V550c0-27.615-22.385-50-50-50H550c-27.615 0-50 22.385-50 50zm350-450c-27.615 0-50 22.386-50 50v100c0 27.614 22.385 50 50 50h100c27.615 0 50-22.386 50-50V250c0-27.614-22.385-50-50-50zM500 350c0 27.614 22.385 50 50 50h100c27.615 0 50-22.386 50-50V250c0-27.614-22.385-50-50-50H550c-27.615 0-50 22.386-50 50zm300 300c0 27.615 22.385 50 50 50h100c27.615 0 50-22.385 50-50V550c0-27.615-22.385-50-50-50H850c-27.615 0-50 22.385-50 50zm0 300c0 27.615 22.385 50 50 50h100c27.615 0 50-22.385 50-50V850c0-27.615-22.385-50-50-50H850c-27.615 0-50 22.385-50 50z"/></g><defs><clipPath id="a"><path fill="#fff" d="M0 0h1200v1200H0z"/></clipPath></defs></svg>

<svg width="1200" height="1200" viewBox="0 0 1200 1200" fill="none" xmlns="http://www.w3.org/2000/svg"><g clip-path="url(#clip0_225_2888)"><path d="M200 350C200 377.614 222.386 400 250 400H350C377.614 400 400 377.614 400 350V250C400 222.386 377.614 200 350 200H250C222.386 200 200 222.386 200 250V350ZM500 950C500 977.615 522.385 1000 550 1000H650C677.615 1000 700 977.615 700 950V850C700 822.385 677.615 800 650 800H550C522.385 800 500 822.385 500 850V950ZM200 950C200 977.615 222.386 1000 250 1000H350C377.614 1000 400 977.615 400 950V850C400 822.385 377.614 800 350 800H250C222.386 800 200 822.385 200 850V950ZM200 650C200 677.615 222.386 700 250 700H350C377.614 700 400 677.615 400 650V550C400 522.385 377.614 500 350 500H250C222.386 500 200 522.385 200 550V650ZM500 650C500 677.615 522.385 700 550 700H650C677.615 700 700 677.615 700 650V550C700 522.385 677.615 500 650 500H550C522.385 500 500 522.385 500 550V650ZM850 200C822.385 200 800 222.386 800 250V350C800 377.614 822.385 400 850 400H950C977.615 400 1000 377.614 1000 350V250C1000 222.386 977.615 200 950 200H850ZM500 350C500 377.614 522.385 400 550 400H650C677.615 400 700 377.614 700 350V250C700 222.386 677.615 200 650 200H550C522.385 200 500 222.386 500 250V350ZM800 650C800 677.615 822.385 700 850 700H950C977.615 700 1000 677.615 1000 650V550C1000 522.385 977.615 500 950 500H850C822.385 500 800 522.385 800 550V650ZM800 950C800 977.615 822.385 1000 850 1000H950C977.615 1000 1000 977.615 1000 950V850C1000 822.385 977.615 800 950 800H850C822.385 800 800 822.385 800 850V950Z" fill="#1D1E23"/></g><defs><clipPath id="clip0_225_2888"><path width="24" fill="white" d="M0 0H1200V1200H0V0z"/></clipPath></defs></svg>
